X: 23353
T: Leitrim Fancy, The
R: jig
M: 6/8
K: Dmajor
GBG FAF|EDB BAB|~G3 FAF|DFA AFD|
~G3 FAF|EDB BAB|GAB dBG|ABG FED:|
GAB dBd|edB dBA|GAB dBG|ABG FED|
GAB dBd|edB def|gfe dBG|ABG FED:|

